pp/clock_print.svg

<svg viewBox="0 0 20 20" fill="none" xmlns="http://www.w3.org/2000/svg" height="1em" width="1em">
  <g opacity="0.8">
    <path d="M18.75 11C18.75 14.866 15.616 18 11.75 18C7.88401 18 4.75 14.866 4.75 11C4.75 7.13401 7.88401 4 11.75 4C15.616 4 18.75 7.13401 18.75 11Z" fill="currentColor"/>
  </g>
  <path fill-rule="evenodd" clip-rule="evenodd" d="M10 16C13.3137 16 16 13.3137 16 10C16 6.68629 13.3137 4 10 4C6.68629 4 4 6.68629 4 10C4 13.3137 6.68629 16 10 16ZM10 17C13.866 17 17 13.866 17 10C17 6.13401 13.866 3 10 3C6.13401 3 3 6.13401 3 10C3 13.866 6.13401 17 10 17Z" fill="black"/>
  <path fill-rule="evenodd" clip-rule="evenodd" d="M10 6.5C10.2761 6.5 10.5 6.72386 10.5 7V10C10.5 10.2761 10.2761 10.5 10 10.5C9.72386 10.5 9.5 10.2761 9.5 10V7C9.5 6.72386 9.72386 6.5 10 6.5Z" fill="black"/>
  <path fill-rule="evenodd" clip-rule="evenodd" d="M13.5 10C13.5 10.2761 13.2761 10.5 13 10.5H10C9.72386 10.5 9.5 10.2761 9.5 10C9.5 9.72386 9.72386 9.5 10 9.5H13C13.2761 9.5 13.5 9.72386 13.5 10Z" fill="black"/>
</svg>

<svg viewBox="0 0 20 20" fill="none" xmlns="http://www.w3.org/2000/svg" height="1em" width="1em">
  <path d="M18.75 11a7 7 0 1 1-14 0 7 7 0 0 1 14 0Z" fill="currentColor" opacity=".8"/>
  <path fill-rule="evenodd" clip-rule="evenodd" d="M10 16a6 6 0 1 0 0-12 6 6 0 0 0 0 12Zm0 1a7 7 0 1 0 0-14 7 7 0 0 0 0 14Z" fill="#000"/>
  <path fill-rule="evenodd" clip-rule="evenodd" d="M10 6.5a.5.5 0 0 1 .5.5v3a.5.5 0 0 1-1 0V7a.5.5 0 0 1 .5-.5Z" fill="#000"/>
  <path fill-rule="evenodd" clip-rule="evenodd" d="M13.5 10a.5.5 0 0 1-.5.5h-3a.5.5 0 0 1 0-1h3a.5.5 0 0 1 .5.5Z" fill="#000"/>
</svg>
